X:50
T: ICH BIN SO LANG NICHT BEI DIR GEWESN
N: E1046
O: Europa, Mitteleuropa, Deutschland, Thueringen
R: Tanz - Lied
M: 2/4
L: 1/16
K: G
D2 | G2A2B2c2 | d2cBA2
GA | B2A2G2F2 | G4z2
d2 | c2B2A2G2 | F2E2D2
d2 | c2B2A2G2 | F2E2D2
D2 | G2A2B2c2 | d2cBA2
GA | B2A2G2F2 | G4z2

@@@ Tune index: 4734
